X: 1
T: Because He Was a Bonny Lad
O: Donald Angus Beaton version
B: Skye Colln.
Z: T.Traub 2-27-2004
N: see also: SRSNH 2.7a, pipe version in Scots Guards I
M: C
L: 1/8
K: A
d |\
"A"c>BA>a "D"f/g/a "A"e>c | "Bm"d<f"A"e>c "E"B/B/B B>d |\
"A"c>BA>a "D"f/g/a "A"e>c | "D"d<f"E"e>c "A"A/A/A A :|
d |\
"A"c>BA>c "D"d>e f<d | "A"c<Ae>c "E"B/B/B B>d |\
"A"c>BA>c "D"d>ef>g | "E"a/g/f/e/ a>c "A"A/A/A A> ||
d |\
"A"c>Ae>A "D"f>Ae>A | "A"c<Ae>c "E"B/B/B B>g |\
"F#m"a>f"E"g>e "D"f>d"A"e>c | "D"d<f"E"e>c "A"A/A/A A |]
